X:1
T:FILL, FILL, A RÚN Ó
N:Mícheál Ó hÉidhin. "Cas Amhrán", 1975
I:abc2nwc
M:3/4
L:1/8
K:D
d3e d2|c3d c2|(B4A2|B4)c2|d3e d2|c3d c2|B A F4-|F4F2|F3B B2|c3d c2|[M:4/4](B2A B2 (3ABA|[M:3/4]F4)D E|F3F F/2|F3F E2|E D D4-|D4z2"^Curfa"|d6|c3d c2|(B4A2|B4c2)|d3e d2|c3d c2|B A F4-|F4F2|F2B/2 B3/2 B2|c3d c2|[M:4/4](B3A B2 (3ABA|[M:3/4]F4)D E|F3F F2|F4E2|E D D4-|D4z2
